X:173
T:Dargason
C:John Playford, 1651
M:6/8
L:1/8
S:Colin Hume's website,  colinhume.com  - chords can also be printed below the stave.
Q:3/8=116
%%MIDI ratio 3 1
K:F
%%textfont Times-Roman-Bold 20
%%center Play in F 8 times, in G 8 times, in A 3 times, then final bar.
|: "F"A2F F2F | "F"A2B c>BA | "Gm"B2G G2G | "C7"B2c d>cB |\
"F"A2F F2F | "Dm"f2f e>dc | "Gm"B2G G2G | "C7"g2f e>dc :|
K:G
|: "G"B2G G2G | "G"B2c d>cB | "Am"c2A A2A | "D7"c2d e>dc |\
"G"B2G G2G | "Em"g2g f>ed | "Am"c2A A2A | "D7"a2g f>ed :|
K:A
|: "A"c2A A2A | "A"c2d e>dc | "Bm"d2B B2B | "E7"d2e f>ed |\
"A"c2A A2A | "F#m"a2a g>fe | "Bm"d2B B2B | "E7"b2a g>fe :| "A"!fermata!c3 !fermata!A3 |]

